dist/svgs/unicons/line/envelope-add.svg

<svg xmlns="http://www.w3.org/2000/svg" data-name="Layer 1" viewBox="0 0 24 24"><path d="M17 7h1v1a1 1 0 002 0V7h1a1 1 0 000-2h-1V4a1 1 0 00-2 0v1h-1a1 1 0 000 2zm4 4a1 1 0 00-1 1v6a1 1 0 01-1 1H5a1 1 0 01-1-1V8.41l5.88 5.89a3 3 0 004.24 0l2.47-2.47a1 1 0 00-1.42-1.42l-2.47 2.47a1 1 0 01-1.4 0L5.41 7H13a1 1 0 000-2H5a3 3 0 00-3 3v10a3 3 0 003 3h14a3 3 0 003-3v-6a1 1 0 00-1-1z"/></svg>

<svg xmlns="http://www.w3.org/2000/svg" data-name="Layer 1" viewBox="0 0 24 24"><path d="M17,7h1V8a1,1,0,0,0,2,0V7h1a1,1,0,0,0,0-2H20V4a1,1,0,0,0-2,0V5H17a1,1,0,0,0,0,2Zm4,4a1,1,0,0,0-1,1v6a1,1,0,0,1-1,1H5a1,1,0,0,1-1-1V8.41L9.88,14.3a3,3,0,0,0,4.24,0l2.47-2.47a1,1,0,0,0-1.42-1.42L12.7,12.88a1,1,0,0,1-1.4,0L5.41,7H13a1,1,0,0,0,0-2H5A3,3,0,0,0,2,8V18a3,3,0,0,0,3,3H19a3,3,0,0,0,3-3V12A1,1,0,0,0,21,11Z"/></svg>
